src/images/contact-images/gitHub-white.svg

<svg enable-background="new 0 0 133 138.26" viewBox="0 0 133 138.26" xmlns="http://www.w3.org/2000/svg"><g fill="#fff"><path clip-rule="evenodd" d="m66.5 10.23c-33.35 0-60.39 27.04-60.39 60.39 0 26.68 17.3 49.32 41.3 57.3 3.02.56 4.13-1.31 4.13-2.91 0-1.44-.06-6.2-.08-11.24-16.8 3.65-20.34-7.12-20.34-7.12-2.75-6.98-6.7-8.84-6.7-8.84-5.48-3.75.41-3.67.41-3.67 6.06.43 9.26 6.22 9.26 6.22 5.39 9.23 14.13 6.56 17.57 5.02.54-3.9 2.11-6.57 3.83-8.08-13.41-1.53-27.51-6.71-27.51-29.84 0-6.59 2.36-11.98 6.22-16.21-.63-1.52-2.69-7.66.58-15.98 0 0 5.07-1.62 16.61 6.19 4.82-1.34 9.98-2.01 15.12-2.03 5.13.02 10.3.69 15.13 2.03 11.53-7.81 16.59-6.19 16.59-6.19 3.29 8.32 1.22 14.46.59 15.98 3.87 4.23 6.21 9.62 6.21 16.21 0 23.19-14.13 28.3-27.57 29.8 2.17 1.87 4.1 5.55 4.1 11.18 0 8.08-.07 14.58-.07 16.57 0 1.61 1.09 3.49 4.15 2.9 23.98-7.99 41.26-30.62 41.26-57.29-.01-33.35-27.05-60.39-60.4-60.39z" fill-rule="evenodd"/><path d="m28.98 96.94c-.13.3-.61.39-1.04.18-.44-.2-.68-.61-.54-.91.13-.31.6-.39 1.04-.19.45.2.7.62.54.92zm-.74-.55"/><path d="m31.43 99.67c-.29.27-.85.14-1.23-.28-.4-.42-.47-.98-.18-1.25.3-.27.84-.14 1.24.28.39.42.47.98.17 1.25zm-.58-.62"/><path d="m33.81 103.14c-.37.26-.98.02-1.35-.52s-.37-1.18.01-1.44c.37-.26.97-.03 1.35.51.37.55.37 1.19-.01 1.45zm0 0"/><path d="m37.07 106.5c-.33.37-1.04.27-1.55-.23-.53-.49-.67-1.18-.34-1.54.34-.37 1.04-.26 1.56.23.53.49.69 1.18.33 1.54zm0 0"/><path d="m41.57 108.46c-.15.47-.83.69-1.51.49-.68-.21-1.13-.76-.99-1.24s.82-.7 1.51-.49c.69.2 1.13.75.99 1.24zm0 0"/><path d="m46.52 108.82c.02.5-.56.91-1.28.92-.72.02-1.31-.39-1.31-.88 0-.5.57-.91 1.29-.92.71-.02 1.3.38 1.3.88zm0 0"/><path d="m51.11 108.03c.09.49-.41.98-1.13 1.12-.7.13-1.35-.17-1.44-.65-.09-.5.42-1 1.12-1.13.72-.12 1.36.17 1.45.66zm0 0"/></g></svg>

<?xml version="1.0" encoding="utf-8"?>
<!-- Generator: Adobe Illustrator 24.1.2, SVG Export Plug-In . SVG Version: 6.00 Build 0)  -->
<svg version="1.1" id="Layer_1" xmlns="http://www.w3.org/2000/svg" xmlns:xlink="http://www.w3.org/1999/xlink" x="0px" y="0px"
	 viewBox="0 0 133 138.26" enable-background="new 0 0 133 138.26" xml:space="preserve">
<g>
	<path fill-rule="evenodd" clip-rule="evenodd" fill="#FFFFFF" d="M66.5,10.23c-33.35,0-60.39,27.04-60.39,60.39
		c0,26.68,17.3,49.32,41.3,57.3c3.02,0.56,4.13-1.31,4.13-2.91c0-1.44-0.06-6.2-0.08-11.24c-16.8,3.65-20.34-7.12-20.34-7.12
		c-2.75-6.98-6.7-8.84-6.7-8.84c-5.48-3.75,0.41-3.67,0.41-3.67c6.06,0.43,9.26,6.22,9.26,6.22c5.39,9.23,14.13,6.56,17.57,5.02
		c0.54-3.9,2.11-6.57,3.83-8.08c-13.41-1.53-27.51-6.71-27.51-29.84c0-6.59,2.36-11.98,6.22-16.21c-0.63-1.52-2.69-7.66,0.58-15.98
		c0,0,5.07-1.62,16.61,6.19c4.82-1.34,9.98-2.01,15.12-2.03c5.13,0.02,10.3,0.69,15.13,2.03c11.53-7.81,16.59-6.19,16.59-6.19
		c3.29,8.32,1.22,14.46,0.59,15.98c3.87,4.23,6.21,9.62,6.21,16.21c0,23.19-14.13,28.3-27.57,29.8c2.17,1.87,4.1,5.55,4.1,11.18
		c0,8.08-0.07,14.58-0.07,16.57c0,1.61,1.09,3.49,4.15,2.9c23.98-7.99,41.26-30.62,41.26-57.29C126.89,37.27,99.85,10.23,66.5,10.23
		z"/>
	<path fill="#FFFFFF" d="M28.98,96.94c-0.13,0.3-0.61,0.39-1.04,0.18c-0.44-0.2-0.68-0.61-0.54-0.91c0.13-0.31,0.6-0.39,1.04-0.19
		C28.89,96.22,29.14,96.64,28.98,96.94L28.98,96.94z M28.24,96.39"/>
	<path fill="#FFFFFF" d="M31.43,99.67c-0.29,0.27-0.85,0.14-1.23-0.28c-0.4-0.42-0.47-0.98-0.18-1.25c0.3-0.27,0.84-0.14,1.24,0.28
		C31.65,98.84,31.73,99.4,31.43,99.67L31.43,99.67z M30.85,99.05"/>
	<path fill="#FFFFFF" d="M33.81,103.14c-0.37,0.26-0.98,0.02-1.35-0.52c-0.37-0.54-0.37-1.18,0.01-1.44
		c0.37-0.26,0.97-0.03,1.35,0.51C34.19,102.24,34.19,102.88,33.81,103.14L33.81,103.14z M33.81,103.14"/>
	<path fill="#FFFFFF" d="M37.07,106.5c-0.33,0.37-1.04,0.27-1.55-0.23c-0.53-0.49-0.67-1.18-0.34-1.54
		c0.34-0.37,1.04-0.26,1.56,0.23C37.27,105.45,37.43,106.14,37.07,106.5L37.07,106.5z M37.07,106.5"/>
	<path fill="#FFFFFF" d="M41.57,108.46c-0.15,0.47-0.83,0.69-1.51,0.49c-0.68-0.21-1.13-0.76-0.99-1.24
		c0.14-0.48,0.82-0.7,1.51-0.49C41.27,107.42,41.71,107.97,41.57,108.46L41.57,108.46z M41.57,108.46"/>
	<path fill="#FFFFFF" d="M46.52,108.82c0.02,0.5-0.56,0.91-1.28,0.92c-0.72,0.02-1.31-0.39-1.31-0.88c0-0.5,0.57-0.91,1.29-0.92
		C45.93,107.92,46.52,108.32,46.52,108.82L46.52,108.82z M46.52,108.82"/>
	<path fill="#FFFFFF" d="M51.11,108.03c0.09,0.49-0.41,0.98-1.13,1.12c-0.7,0.13-1.35-0.17-1.44-0.65c-0.09-0.5,0.42-1,1.12-1.13
		C50.38,107.25,51.02,107.54,51.11,108.03L51.11,108.03z M51.11,108.03"/>
</g>
</svg>
